src/shared/assets/icons/vertical.svg

<svg width="200" height="300" viewBox="0 0 200 300" fill="none" xmlns="http://www.w3.org/2000/svg">
<g clip-path="url(#clip0_14_2)">
<path d="M200 0H0V300H200V0Z" fill="#041223"/>
<g opacity="0.2">
<path d="M59.194 157.413V185.27C59.194 190.391 63.351 194.555 68.4565 194.555H135.147C140.256 194.555 144.41 190.391 144.41 185.27V157.413H59.194Z" fill="#B1B1B1"/>
<path d="M99.4526 113.938L85.5882 117.237L97.2037 134.37L112.22 130.945L99.4526 113.938Z" fill="#B1B1B1"/>
<path d="M81.7356 118.153L66.7929 121.704L78.2859 138.678L93.3244 135.25L81.7356 118.153Z" fill="#B1B1B1"/>
<path d="M144.35 121.652L141.198 109.663C140.471 106.747 137.493 104.913 134.554 105.585L122.105 108.549L133.917 126.005L142.968 123.94C143.461 123.829 143.884 123.521 144.143 123.09C144.402 122.659 144.476 122.142 144.35 121.652Z" fill="#B1B1B1"/>
<path d="M118.248 109.466L103.387 113.002L116.177 130.046L130.038 126.885L118.248 109.466Z" fill="#B1B1B1"/>
<path d="M77.8637 138.845L71.9354 153.698H86.4704L92.3985 138.845H77.8637Z" fill="#B1B1B1"/>
<path d="M96.3889 138.845L90.4607 153.698H104.996L110.924 138.845H96.3889Z" fill="#B1B1B1"/>
<path d="M142.557 138.845H133.439L127.511 153.702H144.41V140.702C144.41 139.674 143.583 138.845 142.557 138.845Z" fill="#B1B1B1"/>
<path d="M114.914 138.845L108.986 153.698H123.517L129.449 138.845H114.914Z" fill="#B1B1B1"/>
<path d="M62.9397 122.625L59.92 123.342C58.4492 123.676 57.2043 124.571 56.4151 125.857C55.6259 127.146 55.3925 128.661 55.7593 130.128L59.1939 143.736V153.698H67.9451L73.5063 139.766L74.4104 139.562L62.9397 122.625Z" fill="#B1B1B1"/>
</g>
</g>
<defs>
<clipPath id="clip0_14_2">
<rect width="200" height="300" fill="white"/>
</clipPath>
</defs>
</svg>

<svg width="200" height="300" viewBox="0 0 200 300" fill="none" xmlns="http://www.w3.org/2000/svg"><g clip-path="url(#a)"><path d="M200 0H0v300h200z" fill="#041223"/><path d="M59.194 157.413v27.857c0 5.121 4.157 9.285 9.263 9.285h66.69c5.109 0 9.263-4.164 9.263-9.285v-27.857zm40.259-43.475-13.865 3.299 11.616 17.133 15.016-3.425zm-17.717 4.215-14.943 3.551 11.493 16.974 15.038-3.428zm62.614 3.499-3.152-11.989c-.727-2.916-3.705-4.75-6.644-4.078l-12.449 2.964 11.812 17.456 9.051-2.065a1.84 1.84 0 0 0 1.175-.85 1.88 1.88 0 0 0 .207-1.438m-26.102-12.186-14.861 3.536 12.79 17.044 13.861-3.161zm-40.384 29.379-5.929 14.853H86.47l5.929-14.853zm18.525 0-5.928 14.853h14.535l5.928-14.853zm46.168 0h-9.118l-5.928 14.857h16.899v-13a1.85 1.85 0 0 0-1.853-1.857m-27.643 0-5.928 14.853h14.531l5.932-14.853zm-51.974-16.22-3.02.717a5.52 5.52 0 0 0-3.505 2.515 5.54 5.54 0 0 0-.656 4.271l3.435 13.608v9.962h8.751l5.561-13.932.904-.204z" opacity=".2" fill="#B1B1B1"/></g><defs><clipPath id="a"><path fill="#fff" d="M0 0h200v300H0z"/></clipPath></defs></svg>
